Papirus-GTK/16x16/apps/alexandra.svg

<svg height="16" viewBox="0 0 16 16" width="16" xmlns="http://www.w3.org/2000/svg"><path d="m5 0a4 4 0 0 0 -4 4 4 4 0 0 0  .5664062 2.0429688c-.3226185.0986772-.5664062.4480217-.5664062.8867187v2.0703125a1 1 0 0 0 -1 1 1 1 0 0 0  1 1v2.070312c0 .514906.3286984.929688.7363281.929688h3.390625l-1 1.095703a.95354409.60380763 0 0 0  .8261719.904297h2.546875 2.546875a.95354409.60380763 0 0 0  .826172-.904297l-1.0000001-1.095703h3.3906251c.40763 0 .736328-.414785.736328-.929688v-.722656l.869141.542969a.75475943.81732354 0 0 0 1.130859-.708984v-2.181641-2.1816406a.75475943.81732354 0 0 0 -1.130859-.7089844l-.869141.5429688v-.7226563c0-.438697-.243788-.7880415-.566406-.8867187a4 4 0 0 0  .566406-2.0429688 4 4 0 0 0 -4-4 4 4 0 0 0 -2.5019531.88085938 4 4 0 0 0 -2.4980469-.88085938z" fill="#11ab66" overflow="visible"/><path d="m5 2a2 2 0 0 0 -2 2 2 2 0 0 0  2 2 2 2 0 0 0  2-2 2 2 0 0 0 -2-2zm0 1a1 1 0 0 1 1 1 1 1 0 0 1 -1 1 1 1 0 0 1 -1-1 1 1 0 0 1  1-1z" fill="#fff" overflow="visible"/><path d="m10 2a2 2 0 0 0 -2 2 2 2 0 0 0  2 2 2 2 0 0 0  2-2 2 2 0 0 0 -2-2zm0 1a1 1 0 0 1 1 1 1 1 0 0 1 -1 1 1 1 0 0 1 -1-1 1 1 0 0 1  1-1z" fill="#fff" overflow="visible"/></svg>

<?xml version="1.0" encoding="UTF-8" standalone="no"?>
<!-- Created with Inkscape (http://www.inkscape.org/) -->

<svg
   xmlns:dc="http://purl.org/dc/elements/1.1/"
   xmlns:cc="http://creativecommons.org/ns#"
   xmlns:rdf="http://www.w3.org/1999/02/22-rdf-syntax-ns#"
   xmlns:svg="http://www.w3.org/2000/svg"
   xmlns="http://www.w3.org/2000/svg"
   xmlns:sodipodi="http://sodipodi.sourceforge.net/DTD/sodipodi-0.dtd"
   xmlns:inkscape="http://www.inkscape.org/namespaces/inkscape"
   id="svg2"
   height="16"
   viewBox="0 0 16 16"
   width="16"
   version="1.1"
   inkscape:version="0.91 r13725"
   sodipodi:docname="alexandra.svg">
  <defs
     id="defs9" />
  <sodipodi:namedview
     pagecolor="#ffffff"
     bordercolor="#666666"
     borderopacity="1"
     objecttolerance="10"
     gridtolerance="10"
     guidetolerance="10"
     inkscape:pageopacity="0"
     inkscape:pageshadow="2"
     inkscape:window-width="1600"
     inkscape:window-height="849"
     id="namedview7"
     showgrid="false"
     inkscape:zoom="21.31"
     inkscape:cx="4.4790702"
     inkscape:cy="8.4917879"
     inkscape:window-x="0"
     inkscape:window-y="0"
     inkscape:window-maximized="1"
     inkscape:current-layer="svg2" />
  <metadata
     id="metadata8">
    <rdf:RDF>
      <cc:Work
         rdf:about="">
        <dc:format>image/svg+xml</dc:format>
        <dc:type
           rdf:resource="http://purl.org/dc/dcmitype/StillImage" />
        <dc:title />
      </cc:Work>
    </rdf:RDF>
  </metadata>
  <path
     style="color:#000000;font-style:normal;font-variant:normal;font-weight:normal;font-stretch:normal;font-size:medium;line-height:normal;font-family:sans-serif;text-indent:0;text-align:start;text-decoration:none;text-decoration-line:none;text-decoration-style:solid;text-decoration-color:#000000;letter-spacing:normal;word-spacing:normal;text-transform:none;direction:ltr;block-progression:tb;writing-mode:lr-tb;baseline-shift:baseline;text-anchor:start;white-space:normal;clip-rule:nonzero;display:inline;overflow:visible;visibility:visible;opacity:1;isolation:auto;mix-blend-mode:normal;color-interpolation:sRGB;color-interpolation-filters:linearRGB;solid-color:#000000;solid-opacity:1;fill:#11ab66;fill-opacity:1;fill-rule:nonzero;stroke:none;stroke-width:1.4000001;stroke-linecap:round;stroke-linejoin:round;stroke-miterlimit:4;stroke-dasharray:none;stroke-dashoffset:0;stroke-opacity:1;color-rendering:auto;image-rendering:auto;shape-rendering:auto;text-rendering:auto;enable-background:accumulate"
     d="M 5,0 A 4,4 0 0 0 1,4 4,4 0 0 0 1.5664062,6.0429688 C 1.2437877,6.141646 1,6.4909905 1,6.9296875 L 1,9 a 1,1 0 0 0 -1,1 1,1 0 0 0 1,1 l 0,2.070312 C 1,13.585218 1.3286984,14 1.7363281,14 l 3.390625,0 -1,1.095703 A 0.95354409,0.60380763 0 0 0 4.953125,16 L 7.5,16 l 2.546875,0 a 0.95354409,0.60380763 0 0 0 0.826172,-0.904297 L 9.8730469,14 13.263672,14 C 13.671302,14 14,13.585215 14,13.070312 l 0,-0.722656 0.869141,0.542969 A 0.75475943,0.81732354 0 0 0 16,12.181641 L 16,10 16,7.8183594 A 0.75475943,0.81732354 0 0 0 14.869141,7.109375 L 14,7.6523438 14,6.9296875 C 14,6.4909905 13.756212,6.141646 13.433594,6.0429688 A 4,4 0 0 0 14,4 4,4 0 0 0 10,0 4,4 0 0 0 7.4980469,0.88085938 4,4 0 0 0 5,0 Z"
     id="path4141" />
  <path
     style="color:#000000;font-style:normal;font-variant:normal;font-weight:normal;font-stretch:normal;font-size:medium;line-height:normal;font-family:sans-serif;text-indent:0;text-align:start;text-decoration:none;text-decoration-line:none;text-decoration-style:solid;text-decoration-color:#000000;letter-spacing:normal;word-spacing:normal;text-transform:none;direction:ltr;block-progression:tb;writing-mode:lr-tb;baseline-shift:baseline;text-anchor:start;white-space:normal;clip-rule:nonzero;display:inline;overflow:visible;visibility:visible;opacity:1;isolation:auto;mix-blend-mode:normal;color-interpolation:sRGB;color-interpolation-filters:linearRGB;solid-color:#000000;solid-opacity:1;fill:#ffffff;fill-opacity:1;fill-rule:nonzero;stroke:none;stroke-width:1.4000001;stroke-linecap:round;stroke-linejoin:round;stroke-miterlimit:4;stroke-dasharray:none;stroke-dashoffset:0;stroke-opacity:1;color-rendering:auto;image-rendering:auto;shape-rendering:auto;text-rendering:auto;enable-background:accumulate"
     d="M 5 2 A 2 2 0 0 0 3 4 A 2 2 0 0 0 5 6 A 2 2 0 0 0 7 4 A 2 2 0 0 0 5 2 z M 5 3 A 1 1 0 0 1 6 4 A 1 1 0 0 1 5 5 A 1 1 0 0 1 4 4 A 1 1 0 0 1 5 3 z "
     id="path4139" />
  <path
     style="color:#000000;font-style:normal;font-variant:normal;font-weight:normal;font-stretch:normal;font-size:medium;line-height:normal;font-family:sans-serif;text-indent:0;text-align:start;text-decoration:none;text-decoration-line:none;text-decoration-style:solid;text-decoration-color:#000000;letter-spacing:normal;word-spacing:normal;text-transform:none;direction:ltr;block-progression:tb;writing-mode:lr-tb;baseline-shift:baseline;text-anchor:start;white-space:normal;clip-rule:nonzero;display:inline;overflow:visible;visibility:visible;opacity:1;isolation:auto;mix-blend-mode:normal;color-interpolation:sRGB;color-interpolation-filters:linearRGB;solid-color:#000000;solid-opacity:1;fill:#ffffff;fill-opacity:1;fill-rule:nonzero;stroke:none;stroke-width:1.4000001;stroke-linecap:round;stroke-linejoin:round;stroke-miterlimit:4;stroke-dasharray:none;stroke-dashoffset:0;stroke-opacity:1;color-rendering:auto;image-rendering:auto;shape-rendering:auto;text-rendering:auto;enable-background:accumulate"
     d="M 10 2 A 2 2 0 0 0 8 4 A 2 2 0 0 0 10 6 A 2 2 0 0 0 12 4 A 2 2 0 0 0 10 2 z M 10 3 A 1 1 0 0 1 11 4 A 1 1 0 0 1 10 5 A 1 1 0 0 1 9 4 A 1 1 0 0 1 10 3 z "
     id="path4137" />
</svg>
